CV/CV/Assets.xcassets/skillsImages/swift-original.imageset/swift-original.svg

<svg width="128" height="128" viewBox="0 0 128 128" fill="none" xmlns="http://www.w3.org/2000/svg">
<path d="M126.33 34.0602C126.329 31.4304 126.065 28.8072 125.54 26.2302C125.015 23.5921 124.123 21.0407 122.89 18.6502C121.601 16.3349 120 14.2082 118.13 12.3302C116.202 10.4436 113.962 8.90432 111.51 7.78023C109.09 6.55994 106.502 5.70723 103.83 5.25023C101.18 4.74023 98.2702 4.74023 95.6202 4.49023H30.2502C28.2111 4.52344 26.1765 4.69382 24.1602 5.00023C22.1593 5.23579 20.2007 5.74731 18.3402 6.52023C17.8102 6.77023 17.0202 7.03023 16.4902 7.28023C14.73 8.22379 13.0567 9.32141 11.4902 10.5602C10.9602 11.0702 10.4302 11.3202 9.9002 11.8202C7.95126 13.6279 6.33947 15.7679 5.1402 18.1402C3.83052 20.4971 2.93423 23.0608 2.4902 25.7202C2.09612 28.3154 1.83245 30.9287 1.7002 33.5502V93.9402C1.70102 96.5701 1.96568 99.1932 2.4902 101.77C3.01498 104.408 3.90699 106.96 5.1402 109.35C6.42898 111.666 8.03072 113.792 9.9002 115.67C11.8284 117.557 14.068 119.096 16.5202 120.22C18.9402 121.441 21.5287 122.293 24.2002 122.75C26.8502 123.26 29.7602 123.26 32.4102 123.51H95.6302C98.3843 123.508 101.132 123.254 103.84 122.75C106.512 122.293 109.1 121.441 111.52 120.22C113.92 119.006 116.147 117.476 118.14 115.67C120.089 113.863 121.701 111.723 122.9 109.35C124.21 106.993 125.106 104.43 125.55 101.77C125.944 99.1751 126.208 96.5618 126.34 93.9402V34.0602H126.33Z" fill="#F05138"/>
<path d="M84.9998 96.4999C73.8898 102.63 58.6198 103.26 43.2498 96.9699C31.266 92.1075 21.0197 83.7565 13.8398 72.9999C17.1766 75.5542 20.822 77.6776 24.6898 79.3199C40.5598 86.4199 56.4198 85.9299 67.5898 79.3199C51.6898 67.6599 38.1898 52.4999 28.1298 40.1199C26.1446 38.0277 24.3726 35.7431 22.8398 33.2999C34.9998 43.9099 54.3398 57.2999 61.2198 61.0899C51.3966 51.0248 42.3695 40.2123 34.2198 28.7499C47.7669 41.9148 62.6739 53.6037 78.6898 63.6199C79.3998 63.9999 79.9498 64.3199 80.3898 64.6199C80.8593 63.4738 81.2633 62.3019 81.5998 61.1099C85.3098 48.2199 81.0698 33.5699 71.8098 21.4399C93.2498 33.8099 106 57.0499 100.66 76.5099C100.52 77.0399 100.37 77.5099 100.21 78.0599L100.4 78.2799C110.99 90.9099 108.08 104.28 106.75 101.78C101 90.9999 90.3698 94.3299 84.9998 96.4999Z" fill="#FEFEFE"/>
</svg>

<svg xmlns="http://www.w3.org/2000/svg" viewBox="0 0 128 128"><path fill="#f05138" d="M126.33 34.06a39.32 39.32 0 00-.79-7.83 28.78 28.78 0 00-2.65-7.58 28.84 28.84 0 00-4.76-6.32 23.42 23.42 0 00-6.62-4.55 27.27 27.27 0 00-7.68-2.53c-2.65-.51-5.56-.51-8.21-.76H30.25a45.46 45.46 0 00-6.09.51 21.82 21.82 0 00-5.82 1.52c-.53.25-1.32.51-1.85.76a33.82 33.82 0 00-5 3.28c-.53.51-1.06.76-1.59 1.26a22.41 22.41 0 00-4.76 6.32 23.61 23.61 0 00-2.65 7.58 78.5 78.5 0 00-.79 7.83v60.39a39.32 39.32 0 00.79 7.83 28.78 28.78 0 002.65 7.58 28.84 28.84 0 004.76 6.32 23.42 23.42 0 006.62 4.55 27.27 27.27 0 007.68 2.53c2.65.51 5.56.51 8.21.76h63.22a45.08 45.08 0 008.21-.76 27.27 27.27 0 007.68-2.53 30.13 30.13 0 006.62-4.55 22.41 22.41 0 004.76-6.32 23.61 23.61 0 002.65-7.58 78.49 78.49 0 00.79-7.83V34.06z"/><path fill="#fefefe" d="M85 96.5c-11.11 6.13-26.38 6.76-41.75.47A64.53 64.53 0 0113.84 73a50 50 0 0010.85 6.32c15.87 7.1 31.73 6.61 42.9 0-15.9-11.66-29.4-26.82-39.46-39.2a43.47 43.47 0 01-5.29-6.82c12.16 10.61 31.5 24 38.38 27.79a271.77 271.77 0 01-27-32.34 266.8 266.8 0 0044.47 34.87c.71.38 1.26.7 1.7 1a32.7 32.7 0 001.21-3.51c3.71-12.89-.53-27.54-9.79-39.67C93.25 33.81 106 57.05 100.66 76.51c-.14.53-.29 1-.45 1.55l.19.22c10.59 12.63 7.68 26 6.35 23.5C101 91 90.37 94.33 85 96.5z"/></svg>
